la/list-solid.svg

<svg xmlns="http://www.w3.org/2000/svg" viewBox="0 0 32 32" height="1em" width="1em">
  <path d="M4 5v6h6V5Zm2 2h2v2H6Zm6 0v2h15V7Zm-8 6v6h6v-6Zm2 2h2v2H6Zm6 0v2h15v-2Zm-8 6v6h6v-6Zm2 2h2v2H6Zm6 0v2h15v-2Z"/>
</svg>

<svg xmlns="http://www.w3.org/2000/svg" viewBox="0 0 32 32" height="1em" width="1em">
  <path d="M 4 5 L 4 11 L 10 11 L 10 5 Z M 6 7 L 8 7 L 8 9 L 6 9 Z M 12 7 L 12 9 L 27 9 L 27 7 Z M 4 13 L 4 19 L 10 19 L 10 13 Z M 6 15 L 8 15 L 8 17 L 6 17 Z M 12 15 L 12 17 L 27 17 L 27 15 Z M 4 21 L 4 27 L 10 27 L 10 21 Z M 6 23 L 8 23 L 8 25 L 6 25 Z M 12 23 L 12 25 L 27 25 L 27 23 Z"/>
</svg>
